zondicons/svg/align-right.svg

<svg xmlns="http://www.w3.org/2000/svg" viewBox="0 0 20 20"><path d="M1 1h18v2H1V1zm0 8h18v2H1V9zm0 8h18v2H1v-2zM7 5h12v2H7V5zm0 8h12v2H7v-2z"/></svg>

<svg width="20px" height="20px" viewBox="0 0 20 20" version="1.1" xmlns="http://www.w3.org/2000/svg" xmlns:xlink="http://www.w3.org/1999/xlink"><title>align-right</title><desc>Created with Sketch.</desc><defs></defs><g id="Page-1" stroke="none" stroke-width="1" fill="none" fill-rule="evenodd"><g id="align-right" fill="#000000"><path d="M1,1 L19,1 L19,3 L1,3 L1,1 Z M1,9 L19,9 L19,11 L1,11 L1,9 Z M1,17 L19,17 L19,19 L1,19 L1,17 Z M7,5 L19,5 L19,7 L7,7 L7,5 Z M7,13 L19,13 L19,15 L7,15 L7,13 Z" id="Combined-Shape"></path></g></g></svg>
